src/assets/img/dok_logo.svg

<?xml version="1.0" encoding="UTF-8"?>
<svg width="243px" height="91px" viewBox="0 0 243 91" version="1.1" xmlns="http://www.w3.org/2000/svg" xmlns:xlink="http://www.w3.org/1999/xlink">
    <!-- Generator: Sketch 42 (36781) - http://www.bohemiancoding.com/sketch -->
    <title>Group 14</title>
    <desc>Created with Sketch.</desc>
    <defs></defs>
    <g id="Home" stroke="none" stroke-width="1" fill="none" fill-rule="evenodd">
        <g id="Home-1280" transform="translate(-170.000000, -15.000000)">
            <g id="header">
                <g id="Group-14" transform="translate(170.000000, 15.000000)">
                    <circle id="Oval-3-Copy-7" fill="#FD8CDB" cx="104" cy="68" r="7"></circle>
                    <circle id="Oval-3-Copy-10" fill="#FD8CDB" cx="111.5" cy="50.5" r="4.5"></circle>
                    <circle id="Oval-3-Copy-8" fill="#FD8CDB" cx="128" cy="55" r="7"></circle>
                    <circle id="Oval-3-Copy-9" fill="#FD8CDB" cx="100" cy="33" r="8"></circle>
                    <path d="M153.739073,35.0412574 C150.538411,25.4585462 144.44106,18.2357564 135.21457,13.8555992 C129.045695,10.9235756 122.447682,9.90451866 115.509934,9.85088409 C112.130464,9.88664047 108.590066,10.1548134 105.121192,10.9056974 C92.3721854,13.6768173 83.1099338,20.8638507 78.1927152,33.0210216 C73.4364238,44.8027505 73.5615894,56.7811395 78.3357616,68.5628684 C82.6271523,79.1467583 90.4410596,86.0477407 101.437748,89.1227898 C109.877483,91.4827112 118.460265,91.5899804 126.989404,89.5876228 C138.415232,86.9058939 146.872848,80.2909627 151.843709,69.6176817 C157.064901,58.3901768 157.654967,46.7693517 153.739073,35.0412574 Z M130.511921,60.0886051 C129.117219,64.3793713 126.739073,67.9192534 122.608609,70.0288802 C113.346358,74.7844794 102.671523,69.8500982 99.9536424,59.5880157 C99.1668874,56.6381139 98.9165563,53.6166994 98.8629139,50.5595285 C98.9165563,46.3045187 99.4529801,42.1388998 101.223179,38.1878193 C106.551656,26.2988212 122.304636,26.5491159 128.276821,35.2200393 C130.136424,37.9375246 131.298675,41.0662083 131.656291,44.3379175 C132.3,49.6656189 132.174834,54.9575639 130.511921,60.0886051 Z" id="Shape" fill="#7FD5CA"></path>
                    <path d="M71.1476821,35.4166994 C67.7145695,24.4752456 60.7589404,17.1273084 49.386755,14.391945 C43.5754967,12.997446 37.6390728,12.8007859 31.7205298,12.7471513 C21.689404,12.6398821 11.6403974,12.6935167 1.60927152,12.6756385 C0.0715231788,12.6756385 0.0715231788,12.6756385 0.0715231788,14.1952849 L0.0715231788,50.5595285 L0.0715231788,86.8343811 C0.0715231788,88.4255403 0.0715231788,88.4255403 1.64503311,88.4255403 C12.892053,88.4255403 24.1569536,88.4791749 35.4218543,88.3897839 C38.9086093,88.3897839 42.3774834,88.1752456 45.8463576,87.746169 C57.1470199,86.2265226 65.0682119,80.1300589 69.592053,69.6713163 C71.6483444,64.8978389 72.6675497,59.8561886 73.0251656,54.689391 C73.4543046,48.1638507 73.1145695,41.691945 71.1476821,35.4166994 Z M46.7582781,62.305501 C44.4516556,68.0086444 40.1245033,70.9227898 33.9377483,70.9764244 C31.0231788,71.0121807 28.0907285,70.9764244 25.1761589,71.0300589 C24.3178808,71.0479371 24.1390728,70.6903733 24.1390728,69.921611 C24.1569536,63.5212181 24.1390728,57.1208251 24.1390728,50.702554 C24.1390728,44.3200393 24.1569536,37.9554028 24.1211921,31.572888 C24.1211921,30.6968566 24.3357616,30.3571709 25.2655629,30.3929273 C28.6271523,30.4823183 32.0066225,30.4465619 35.3682119,30.5717092 C41.1258278,30.7862475 44.9701987,33.7540275 46.9370861,39.1174853 C49.7801325,46.8408644 49.8516556,54.6178782 46.7582781,62.305501 Z" id="Shape" fill="#7FD5CA"></path>
                    <path d="M242.499338,7.22278978 C241.176159,5.20255403 239.155629,3.52200393 239.137748,0.804518664 C239.137748,0.0536345776 238.619205,-0.125147348 237.939735,0.125147348 C236.992053,0.464833006 236.02649,0.822396857 235.078808,1.14420432 C234.917881,1.17996071 234.739073,1.1978389 234.560265,1.1978389 C234.256291,1.25147348 233.916556,1.25147348 233.684106,1.41237721 C225.369536,7.31218075 217.072848,13.2119843 208.79404,19.129666 C208.57947,19.3084479 208.400662,19.5408644 208.239735,19.7911591 C208.025166,20.1129666 207.882119,20.524165 207.596026,20.7387033 C206.505298,21.5968566 205.378808,22.3834971 204.216556,23.2237721 L203.590728,22.4371316 C202.643046,23.1165029 202.571523,24.1176817 202.321192,25.0473477 C202.017219,26.1557957 201.802649,27.4430255 201.105298,28.2654224 C198.333775,31.5550098 195.848344,35.1306483 192.486755,37.9017682 C192.093377,38.2235756 191.789404,38.3308448 191.288742,38.1520629 C190.215894,37.7229862 189.107285,37.329666 188.016556,36.9899804 C185.85298,36.310609 185.85298,36.3284872 184.386755,38.0269155 C183.796689,38.7062868 183.188742,39.36778 182.580795,40.0292731 L182.366225,39.9041257 L182.366225,38.7599214 L182.366225,13.8198428 C182.366225,12.5147348 182.366225,12.5147348 181.025166,12.5147348 L159.675497,12.5147348 C158.40596,12.5147348 158.40596,12.5147348 158.40596,13.7125737 L158.40596,87.0846758 C158.40596,88.3003929 158.40596,88.3003929 159.639735,88.3003929 L181.275497,88.3003929 C182.509272,88.3003929 182.509272,88.2825147 182.509272,87.0489194 C182.509272,81.8642436 182.527152,76.6795678 182.491391,71.4948919 C182.455629,70.7261297 182.741722,69.9752456 183.296026,69.4210216 C185.709934,66.8108055 188.070199,64.164833 190.448344,61.5367387 C191.46755,60.4282908 192.486755,59.3019646 193.577483,58.1220039 C193.792053,58.4438114 193.95298,58.6583497 194.078146,58.872888 C199.35298,68.3840864 204.609934,77.8952849 209.849007,87.4064833 C210.188742,88.03222 210.582119,88.2825147 211.297351,88.2825147 C219.576159,88.2646365 227.872848,88.2646365 236.151656,88.2646365 C236.455629,88.2646365 236.759603,88.2288802 237.296026,88.1931238 L208.954967,40.9946955 C209.670199,40.2616896 210.456954,39.4929273 211.172185,38.6705305 C212.602649,37.0078585 214.015232,35.2915521 215.409934,33.5931238 C215.803311,33.0925344 216.196689,32.6992141 216.911921,33.0031434 C217.12649,33.056778 217.376821,33.0031434 217.537748,32.8601179 C218.235099,32.0913556 218.896689,31.2868369 219.540397,30.4644401 C219.683444,30.2856582 219.790728,29.8565815 219.683444,29.7671906 C218.986093,29.1235756 219.486755,28.6766208 219.880132,28.1939096 C224.833113,22.2404715 229.786093,16.2870334 234.756954,10.3514735 C234.953642,10.119057 235.293377,10.0117878 235.57947,9.83300589 C235.686755,10.1548134 235.901325,10.4766208 235.883444,10.7805501 C235.829801,12.2644401 235.740397,13.7483301 235.633113,15.2500982 C235.364901,19.594499 235.096689,23.9210216 234.810596,28.2654224 C234.792715,28.5872299 234.774834,29.0520629 234.578146,29.1772102 C233.237086,30.0353635 233.612583,31.1438114 234.041722,32.2701375 C234.345695,33.0746562 235.025166,33.2355599 236.169536,32.8422397 C237.135099,32.502554 237.456954,31.9304519 237.260265,31.108055 C237.081457,30.4286837 236.974172,29.7314342 236.938411,29.0163065 C236.831126,26.9066798 237.474834,24.9222004 238.154305,22.937721 C239.745695,18.3251473 241.283444,13.6946955 242.856954,9.06424361 C243.107285,8.3848723 242.910596,7.86640472 242.499338,7.22278978 Z M229.5,13.5159136 C225.816556,17.5206287 222.115232,21.5074656 218.431788,25.5300589 C217.895364,26.1200393 217.430464,26.3524558 216.697351,25.8876228 C216.107285,25.5121807 215.481457,25.6015717 215.034437,26.2094303 C214.372848,27.1033399 213.782781,28.0330059 213.103311,28.9090373 C212.870861,29.2129666 212.441722,29.3738703 212.155629,29.6599214 C211.082781,30.7862475 210.063576,31.9304519 208.990728,33.056778 C208.454305,33.611002 208.11457,34.1831041 208.615232,34.91611 C207.739073,35.6669941 207.363576,35.5060904 206.845033,34.6300589 C206.058278,33.3249509 206.970199,32.3774067 207.309934,31.3047151 C207.417219,30.9829077 207.560265,30.6611002 207.721192,30.2856582 C207.846358,30.26778 207.971523,30.26778 208.096689,30.26778 C208.650993,30.3392927 209.169536,30.5359528 209.312583,29.624165 C209.419868,28.9090373 209.813245,28.229666 210.135099,27.5681729 C210.242384,27.3178782 210.474834,27.1212181 210.707285,26.8172888 C210.421192,26.3166994 210.15298,25.7624754 209.795364,25.2440079 C209.330464,24.5825147 209.652318,24.2785855 210.224503,23.9388998 C215.821192,20.5420432 221.4,17.1273084 226.978808,13.6946955 L231.609934,10.8520629 L231.770861,11.0308448 C231.019868,11.8711198 230.268874,12.6935167 229.5,13.5159136 Z M239.17351,3.52200393 L239.459603,3.43261297 L242.624503,7.95579568 C241.265563,8.02730845 240.156954,8.09882122 239.066225,8.11669941 C238.95894,8.11669941 238.744371,7.81277014 238.762252,7.6697446 C238.869536,6.27524558 239.030464,4.89862475 239.17351,3.52200393 Z M237.510596,24.1355599 L237.296026,24.0819253 C237.296026,23.6886051 237.260265,23.2774067 237.296026,22.8840864 C237.653642,18.9151277 238.011258,14.946169 238.386755,10.9772102 C238.422517,10.6732809 238.619205,10.3872299 238.708609,10.0833006 C238.780132,9.88664047 238.923179,9.60058939 238.851656,9.45756385 C238.315232,8.58153242 238.923179,8.58153242 239.513245,8.54577603 C240.496689,8.51001965 241.498013,8.45638507 242.713907,8.40275049 L237.510596,24.1355599 Z" id="Shape" fill="#7FD5CA"></path>
                </g>
            </g>
        </g>
    </g>
</svg>

<svg width="243" height="91" viewBox="0 0 243 91" xmlns="http://www.w3.org/2000/svg"><title>Group 14</title><g fill="none" fill-rule="evenodd"><circle fill="#FD8CDB" cx="104" cy="68" r="7"/><circle fill="#FD8CDB" cx="111.5" cy="50.5" r="4.5"/><circle fill="#FD8CDB" cx="128" cy="55" r="7"/><circle fill="#FD8CDB" cx="100" cy="33" r="8"/><path d="M153.74 35.041c-3.202-9.582-9.299-16.805-18.525-21.185-6.17-2.932-12.767-3.951-19.705-4.005-3.38.036-6.92.304-10.389 1.055-12.749 2.77-22.011 9.958-26.928 22.115-4.757 11.782-4.631 23.76.143 35.542 4.291 10.584 12.105 17.485 23.102 20.56 8.44 2.36 17.022 2.467 25.551.465 11.426-2.682 19.884-9.297 24.855-19.97 5.22-11.228 5.811-22.849 1.895-34.577zM130.511 60.09c-1.395 4.29-3.773 7.83-7.903 9.94-9.263 4.755-19.937-.179-22.655-10.441-.787-2.95-1.037-5.971-1.091-9.028.054-4.255.59-8.421 2.36-12.372 5.329-11.89 21.082-11.639 27.054-2.968a19.987 19.987 0 0 1 3.38 9.118c.643 5.328.518 10.62-1.145 15.75zM71.148 35.417c-3.433-10.942-10.39-18.29-21.761-21.025-5.812-1.395-11.748-1.591-17.666-1.645-10.032-.107-20.08-.053-30.112-.071-1.537 0-1.537 0-1.537 1.52v72.638c0 1.592 0 1.592 1.573 1.592 11.247 0 22.512.053 33.777-.036 3.487 0 6.955-.215 10.424-.644 11.301-1.52 19.222-7.616 23.746-18.075 2.056-4.773 3.076-9.815 3.433-14.982.43-6.525.09-12.997-1.877-19.272zm-24.39 26.889c-2.306 5.703-6.633 8.617-12.82 8.67-2.915.036-5.847 0-8.762.054-.858.018-1.037-.34-1.037-1.108.018-6.4 0-12.801 0-19.22 0-6.382.018-12.747-.018-19.13 0-.875.215-1.215 1.145-1.18 3.361.09 6.74.055 10.102.18 5.758.214 9.602 3.182 11.57 8.545 2.842 7.724 2.914 15.5-.18 23.189zM242.5 7.223c-1.324-2.02-3.344-3.701-3.362-6.418 0-.751-.519-.93-1.198-.68-.948.34-1.914.697-2.861 1.02-.161.035-.34.053-.519.053-.304.053-.643.053-.876.214-8.314 5.9-16.611 11.8-24.89 17.718a2.868 2.868 0 0 0-.554.661c-.215.322-.358.733-.644.948-1.09.858-2.217 1.644-3.38 2.485l-.625-.787c-.948.68-1.02 1.68-1.27 2.61-.304 1.109-.518 2.396-1.216 3.218-2.771 3.29-5.257 6.866-8.618 9.637-.394.322-.698.429-1.198.25a44.565 44.565 0 0 0-3.272-1.162c-2.164-.68-2.164-.662-3.63 1.037-.59.68-1.198 1.34-1.806 2.002l-.215-.125V13.82c0-1.305 0-1.305-1.34-1.305h-21.35c-1.27 0-1.27 0-1.27 1.198v73.372c0 1.215 0 1.215 1.234 1.215h21.635c1.234 0 1.234-.017 1.234-1.251 0-5.185.018-10.37-.018-15.554-.035-.769.25-1.52.805-2.074 2.414-2.61 4.774-5.256 7.152-7.884 1.02-1.109 2.039-2.235 3.13-3.415.214.322.375.536.5.75 5.275 9.512 10.532 19.023 15.771 28.534.34.626.733.877 1.448.877 8.28-.018 16.576-.018 24.855-.018.304 0 .608-.036 1.144-.072l-28.341-47.198c.715-.733 1.502-1.502 2.217-2.324a289.474 289.474 0 0 0 4.238-5.078c.393-.5.787-.894 1.502-.59.214.054.465 0 .626-.143a43.028 43.028 0 0 0 2.002-2.396c.143-.178.25-.607.143-.697-.697-.643-.196-1.09.197-1.573a7096.091 7096.091 0 0 1 14.877-17.843c.197-.232.536-.34.822-.518.108.322.322.644.304.948a127.105 127.105 0 0 1-.25 4.47c-.268 4.343-.536 8.67-.822 13.014-.018.322-.036.787-.233.912-1.34.858-.965 1.967-.536 3.093.304.805.983.966 2.128.572.965-.34 1.287-.912 1.09-1.734a10.196 10.196 0 0 1-.322-2.092c-.107-2.11.537-4.094 1.216-6.078 1.592-4.613 3.13-9.243 4.703-13.874.25-.68.054-1.198-.358-1.841zm-13 6.293c-3.683 4.005-7.385 7.991-11.068 12.014-.537.59-1.002.822-1.735.358-.59-.376-1.216-.286-1.663.321-.661.894-1.251 1.824-1.93 2.7-.233.304-.662.465-.948.75-1.073 1.127-2.092 2.271-3.165 3.398-.537.554-.876 1.126-.376 1.86-.876.75-1.251.59-1.77-.287-.787-1.305.125-2.253.465-3.325.107-.322.25-.644.411-1.02.125-.017.25-.017.376-.017.554.071 1.073.268 1.216-.644.107-.715.5-1.394.822-2.056.107-.25.34-.447.572-.75-.286-.501-.554-1.056-.912-1.574-.465-.661-.143-.965.43-1.305a3227.199 3227.199 0 0 0 16.754-10.244l4.63-2.843.162.179c-.751.84-1.502 1.663-2.271 2.485zm9.674-9.994l.286-.09 3.165 4.524c-1.36.071-2.468.143-3.559.16-.107 0-.322-.303-.304-.446.108-1.395.268-2.771.412-4.148zm-1.663 20.614l-.215-.054c0-.393-.036-.805 0-1.198.358-3.969.715-7.938 1.09-11.907.037-.304.233-.59.323-.894.071-.196.214-.482.143-.625-.537-.876.071-.876.661-.912.984-.036 1.985-.09 3.2-.143l-5.202 15.733z" fill="#7FD5CA"/></g></svg>
